resources/haticons/SVG/filter_tilt_shift.svg

<!-- Generated by IcoMoon.io -->
<svg version="1.1" xmlns="http://www.w3.org/2000/svg" width="24" height="24" viewBox="0 0 24 24">
<title>filter_tilt_shift</title>
<path d="M5.672 19.734l1.406-1.406q1.688 1.313 3.938 1.594v2.016q-1.266-0.141-2.836-0.797t-2.508-1.406zM12.984 19.922q2.203-0.281 3.891-1.594l1.453 1.406q-2.391 1.922-5.344 2.203v-2.016zM18.328 16.922q1.359-1.688 1.594-3.891h2.016q-0.141 1.219-0.797 2.789t-1.406 2.508zM15 12q0 1.219-0.891 2.109t-2.109 0.891-2.109-0.891-0.891-2.109 0.891-2.109 2.109-0.891 2.109 0.891 0.891 2.109zM4.078 12.984q0.234 2.203 1.594 3.891l-1.406 1.453q-1.922-2.391-2.203-5.344h2.016zM5.672 7.078q-1.313 1.734-1.594 3.938h-2.016q0.141-1.266 0.797-2.836t1.406-2.508zM19.922 11.016q-0.281-2.25-1.594-3.938l1.406-1.406q1.922 2.391 2.203 5.344h-2.016zM18.328 4.266l-1.406 1.406q-1.734-1.313-3.938-1.594v-2.016q1.266 0.141 2.836 0.797t2.508 1.406zM11.016 4.078q-2.25 0.281-3.938 1.594l-1.406-1.406q2.391-1.922 5.344-2.203v2.016z"></path>
</svg>

<svg xmlns="http://www.w3.org/2000/svg" width="24" height="24"><path d="M5.672 19.734l1.406-1.406q1.688 1.313 3.938 1.594v2.016q-1.266-.141-2.836-.797t-2.508-1.406zm7.312.188q2.203-.281 3.891-1.594l1.453 1.406q-2.391 1.922-5.344 2.203v-2.016zm5.344-3q1.359-1.688 1.594-3.891h2.016q-.141 1.219-.797 2.789t-1.406 2.508zM15 12q0 1.219-.891 2.109T12 15t-2.109-.891T9 12t.891-2.109T12 9t2.109.891T15 12zm-10.922.984q.234 2.203 1.594 3.891l-1.406 1.453q-1.922-2.391-2.203-5.344h2.016zm1.594-5.906q-1.313 1.734-1.594 3.938H2.062q.141-1.266.797-2.836t1.406-2.508zm14.25 3.938q-.281-2.25-1.594-3.938l1.406-1.406q1.922 2.391 2.203 5.344h-2.016zm-1.594-6.75l-1.406 1.406q-1.734-1.313-3.938-1.594V2.062q1.266.141 2.836.797t2.508 1.406zm-7.312-.188q-2.25.281-3.938 1.594L5.672 4.266q2.391-1.922 5.344-2.203v2.016z"/></svg>
